flaticon/dialogue/envelope-5.svg

<svg xmlns="http://www.w3.org/2000/svg" width="32" height="32" viewBox="0 0 24 24">
    <path d="M 23.988281 10.613281 L 23.988281 10.59375 L 23.929688 10.558594 L 21.601562 8.390625 L 21.601562 0 L 2.398438 0 L 2.398438 8.390625 L 0.0429688 10.585938 L 0 10.613281 L 0 24 L 24 24 L 24 10.625 Z M 12.828125 17.195312 L 16.808594 15 L 21.601562 12.359375 L 23.199219 11.476562 L 23.199219 22.914062 L 21.316406 21.875 Z M 22.925781 10.71875 L 21.601562 11.445312 L 21.601562 9.484375 Z M 3.199219 0.800781 L 20.800781 0.800781 L 20.800781 11.886719 L 13.558594 15.878906 L 12 16.738281 L 3.199219 11.886719 Z M 2.398438 11.445312 L 1.078125 10.714844 L 2.398438 9.484375 Z M 0.800781 23.199219 L 0.800781 11.476562 L 2.398438 12.359375 L 9.527344 16.289062 L 11.171875 17.195312 L 15.296875 19.472656 L 22.058594 23.199219 Z M 0.800781 23.199219"/>
    <path d="M11.199219 4.398438L13.601562 4.398438C13.820312 4.398438 14 4.222656 14 4 14 3.777344 13.820312 3.601562 13.601562 3.601562L11.199219 3.601562C10.980469 3.601562 10.800781 3.777344 10.800781 4 10.800781 4.222656 10.980469 4.398438 11.199219 4.398438zM17.199219 9.601562L14.398438 9.601562C14.179688 9.601562 14 9.777344 14 10 14 10.222656 14.179688 10.398438 14.398438 10.398438L17.199219 10.398438C17.421875 10.398438 17.601562 10.222656 17.601562 10 17.601562 9.777344 17.421875 9.601562 17.199219 9.601562zM7.199219 7.199219L9.199219 7.199219C9.421875 7.199219 9.601562 7.019531 9.601562 6.800781 9.601562 6.578125 9.421875 6.398438 9.199219 6.398438L7.199219 6.398438C6.980469 6.398438 6.800781 6.578125 6.800781 6.800781 6.800781 7.019531 6.980469 7.199219 7.199219 7.199219zM12 6.800781C12 7.019531 12.179688 7.199219 12.398438 7.199219L15.601562 7.199219C15.820312 7.199219 16 7.019531 16 6.800781 16 6.578125 15.820312 6.398438 15.601562 6.398438L12.398438 6.398438C12.179688 6.398438 12 6.578125 12 6.800781zM10.800781 7.199219C10.902344 7.199219 11.007812 7.15625 11.085938 7.085938 11.15625 7.007812 11.199219 6.902344 11.199219 6.800781 11.199219 6.695312 11.15625 6.589844 11.085938 6.515625 10.9375 6.367188 10.664062 6.367188 10.515625 6.515625 10.445312 6.589844 10.398438 6.695312 10.398438 6.800781 10.398438 6.902344 10.445312 7.007812 10.515625 7.085938 10.589844 7.15625 10.695312 7.199219 10.800781 7.199219zM13.199219 10C13.199219 9.777344 13.019531 9.601562 12.800781 9.601562L8.800781 9.601562C8.578125 9.601562 8.398438 9.777344 8.398438 10 8.398438 10.222656 8.578125 10.398438 8.800781 10.398438L12.800781 10.398438C13.019531 10.398438 13.199219 10.222656 13.199219 10zM7.199219 10.398438C7.304688 10.398438 7.40625 10.355469 7.484375 10.285156 7.554688 10.207031 7.601562 10.105469 7.601562 10 7.601562 9.894531 7.554688 9.792969 7.484375 9.714844 7.332031 9.566406 7.0625 9.566406 6.914062 9.714844 6.84375 9.792969 6.800781 9.890625 6.800781 10 6.800781 10.105469 6.84375 10.207031 6.914062 10.285156 6.992188 10.355469 7.097656 10.398438 7.199219 10.398438zM17.199219 7.199219C17.304688 7.199219 17.40625 7.15625 17.484375 7.085938 17.554688 7.007812 17.601562 6.902344 17.601562 6.800781 17.601562 6.695312 17.554688 6.589844 17.484375 6.515625 17.335938 6.367188 17.066406 6.367188 16.914062 6.515625 16.84375 6.589844 16.800781 6.695312 16.800781 6.800781 16.800781 6.902344 16.84375 7.007812 16.914062 7.085938 16.992188 7.15625 17.097656 7.199219 17.199219 7.199219zM7.199219 13.601562L9.199219 13.601562C9.421875 13.601562 9.601562 13.421875 9.601562 13.199219 9.601562 12.980469 9.421875 12.800781 9.199219 12.800781L7.199219 12.800781C6.980469 12.800781 6.800781 12.980469 6.800781 13.199219 6.800781 13.421875 6.980469 13.601562 7.199219 13.601562zM15.601562 12.800781L12.398438 12.800781C12.179688 12.800781 12 12.980469 12 13.199219 12 13.421875 12.179688 13.601562 12.398438 13.601562L15.601562 13.601562C15.820312 13.601562 16 13.421875 16 13.199219 16 12.980469 15.820312 12.800781 15.601562 12.800781zM10.515625 12.914062C10.445312 12.988281 10.398438 13.089844 10.398438 13.199219 10.398438 13.304688 10.445312 13.40625 10.515625 13.484375 10.589844 13.554688 10.691406 13.601562 10.800781 13.601562 10.902344 13.601562 11.007812 13.554688 11.085938 13.484375 11.15625 13.40625 11.199219 13.304688 11.199219 13.199219 11.199219 13.089844 11.15625 12.988281 11.085938 12.914062 10.9375 12.769531 10.660156 12.773438 10.515625 12.914062zM16.914062 12.914062C16.84375 12.988281 16.800781 13.089844 16.800781 13.199219 16.800781 13.304688 16.84375 13.40625 16.914062 13.484375 16.992188 13.554688 17.089844 13.601562 17.199219 13.601562 17.304688 13.601562 17.40625 13.554688 17.484375 13.484375 17.554688 13.40625 17.601562 13.304688 17.601562 13.199219 17.601562 13.089844 17.554688 12.988281 17.484375 12.914062 17.335938 12.769531 17.058594 12.773438 16.914062 12.914062zM16.914062 12.914062"/>
</svg>

<svg xmlns="http://www.w3.org/2000/svg" width="32" height="32" viewBox="0 0 24 24">
    <path d="M23.988 10.613v-.02l-.058-.034-2.328-2.168V0H2.398v8.39L.043 10.587 0 10.613V24h24V10.625zm-11.16 6.582L16.808 15l4.794-2.64 1.597-.883v11.437l-1.883-1.039zm10.098-6.476l-1.324.726v-1.96zM3.199.8h17.602v11.086l-7.242 3.992-1.559.86-8.8-4.852zm-.8 10.644l-1.32-.73 1.32-1.23zM.8 23.2V11.477l1.597.882 7.13 3.93 1.644.906 4.125 2.278 6.762 3.726zm0 0"/>
    <path d="M11.2 4.398h2.402a.398.398 0 1 0 0-.796h-2.403a.398.398 0 1 0 0 .796zm0 0M17.2 9.602h-2.802a.398.398 0 1 0 0 .796H17.2a.398.398 0 1 0 0-.796zm0 0M7.2 7.2h2a.401.401 0 1 0 0-.802h-2a.401.401 0 0 0 0 .801zm0 0M12 6.8a.4.4 0 0 0 .398.4h3.204a.4.4 0 0 0 0-.802h-3.204a.401.401 0 0 0-.398.403zm0 0M10.8 7.2a.438.438 0 0 0 .286-.114.438.438 0 0 0 .113-.285.423.423 0 0 0-.113-.285.42.42 0 0 0-.57 0 .426.426 0 0 0-.118.285c0 .101.047.207.118.285.074.07.18.113.285.113zm0 0M13.2 10a.398.398 0 0 0-.4-.398h-4a.398.398 0 1 0 0 .796h4a.398.398 0 0 0 .4-.398zm0 0M7.2 10.398a.43.43 0 0 0 .284-.113.434.434 0 0 0 .118-.285.434.434 0 0 0-.118-.285.42.42 0 0 0-.57 0 .423.423 0 0 0-.113.285.43.43 0 0 0 .113.285c.078.07.184.113.285.113zm0 0M17.2 7.2a.43.43 0 0 0 .284-.114.442.442 0 0 0 .118-.285.426.426 0 0 0-.118-.285.42.42 0 0 0-.57 0 .423.423 0 0 0-.113.285c0 .101.043.207.113.285.078.07.184.113.285.113zm0 0M7.2 13.602h2a.401.401 0 0 0 0-.8l-2-.001a.4.4 0 0 0 0 .8zm0 0M15.602 12.8h-3.204a.4.4 0 0 0 0 .802h3.204a.401.401 0 0 0 0-.801zm0 0M10.516 12.914a.419.419 0 0 0-.118.285c0 .106.047.207.118.285.074.07.175.118.285.118a.442.442 0 0 0 .285-.118.415.415 0 0 0 0-.57.434.434 0 0 0-.57 0zm0 0M16.914 12.914a.415.415 0 0 0 0 .57c.078.07.176.118.285.118a.434.434 0 0 0 .285-.118.434.434 0 0 0 .118-.285c0-.11-.047-.21-.118-.285a.434.434 0 0 0-.57 0zm0 0"/>
</svg>
